svgs/light/eclipse.svg

<svg xmlns="http://www.w3.org/2000/svg" viewBox="0 0 640 512"><!--! Font Awesome Pro 6.0.0-alpha3 by @fontawesome - https://fontawesome.com License - https://fontawesome.com/license (Commercial License) --><path d="M256 467.5l-48.38-71.64c-3-4.376-8-7.002-13.25-7.002c-1 0-2 .125-3 .3751L106.6 405.6l16.38-84.77c1.25-6.377-1.375-12.75-6.75-16.38L44.62 256.1l71.62-48.39c5.25-3.626 8-10 6.75-16.38L106.6 106.5l84.75 16.38C197.6 124 204.1 121.4 207.8 116.2L256 44.64L280.1 81.54c5.257 7.766 15.99 9.178 23.21 3.195l.329-.2721C310.8 79.32 312 70.25 307.5 63.55L269.2 7.002C266.2 2.626 261.3 0 256 0C250.8 0 245.8 2.626 242.8 7.002L187 89.4l-97.75-18.75c-5.125-1-10.51 .616-14.26 4.367S69.62 84.15 70.62 89.27l18.75 97.77L7 242.8C2.625 245.8 0 250.8 0 256c0 5.251 2.625 10.28 7 13.28l82.38 55.76l-18.88 97.77c-1 5.126 .8437 10.36 4.469 14.11c3.75 3.751 9.156 5.519 14.28 4.519l97.63-18.88l55.88 82.4C245.8 509.4 250.7 512 255.9 512c5.375 0 10.33-2.626 13.21-7.002l38.08-56.36c4.605-6.816 3.143-15.94-3.215-21.16c-7.141-5.878-18.07-4.397-23.24 3.274L256 467.5zM241.1 170.1l.2634-.6427c5.026-12.21-6.691-24.86-19.3-20.94C205.5 154.5 189.1 163.6 176.8 176.8C139 214.7 133.2 270.8 162.2 320.1C169.5 332.3 179.8 342.5 192 349.8c10.08 5.947 20.46 10.39 30.93 13.39c12.41 3.557 23.5-9.272 18.53-21.19l-.2609-.6277c-1.823-4.404-5.382-7.879-9.958-9.207c-7.413-2.152-15.13-5.358-22.1-10c-7.5-4.376-14-10.88-18.37-18.38C164 259.8 178.8 220.2 199.5 199.4c8.045-7.939 19.03-15.14 32.1-19.32C235.1 178.7 239.4 175.2 241.1 170.1zM448 64.02c-106 0-191.1 85.97-191.1 191.1c0 106 85.99 192 191.1 192c105.1 0 192-86.01 192-192C640 149.1 553.1 64.02 448 64.02zM448 416.1c-88.25 0-159.1-71.81-159.1-160.1S359.8 96.02 448 96.02s160 71.77 160 160S536.3 416.1 448 416.1z"/></svg>

<svg xmlns="http://www.w3.org/2000/svg" viewBox="0 0 640 512"><!-- Font Awesome Pro 6.0.0-alpha2 by @fontawesome - https://fontawesome.com License - https://fontawesome.com/license (Commercial License) --><path d="M256 467.489L207.625 395.847C204.625 391.471 199.625 388.845 194.375 388.845C193.375 388.845 192.375 388.97 191.375 389.22L106.625 405.599L123 320.828C124.25 314.452 121.625 308.075 116.25 304.449L44.625 256.063L116.25 207.676C121.5 204.05 124.25 197.673 123 191.297L106.625 106.526L191.375 122.905C197.625 124.03 204.125 121.405 207.75 116.153L256 44.636L280.984 81.544C286.241 89.309 296.976 90.721 304.197 84.738C304.306 84.648 304.416 84.557 304.526 84.466C310.766 79.315 312.021 70.254 307.488 63.55L269.25 7.002C266.25 2.626 261.25 0 256 0C250.75 0 245.75 2.626 242.75 7.002L187 89.397L89.25 70.642C84.125 69.642 78.75 71.267 75 75.018S69.625 84.146 70.625 89.272L89.375 187.046L7 242.809C2.625 245.81 0 250.811 0 256.063C0 261.314 2.625 266.315 7 269.316L89.375 325.079L70.5 422.853C69.5 427.979 71.25 433.356 74.875 437.107C78.625 440.858 84.125 442.483 89.25 441.483L186.875 422.603L242.75 504.998C245.75 509.374 250.625 512 255.875 512C261.25 512 266.25 509.374 269.125 504.998L307.204 448.636C311.809 441.82 310.347 432.693 303.989 427.475C303.906 427.407 303.824 427.339 303.741 427.271C296.599 421.393 285.922 423.078 280.754 430.749L256 467.489ZM241.095 170.959C241.183 170.745 241.271 170.531 241.359 170.316C246.385 158.105 234.667 145.459 222.059 149.377C205.467 154.533 189.994 163.623 176.75 176.793C139 214.677 133.25 270.816 162.25 320.078C169.5 332.331 179.75 342.459 192 349.835C202.076 355.782 212.465 360.225 222.932 363.225C235.338 366.782 246.434 353.953 241.464 342.04C241.377 341.831 241.29 341.622 241.203 341.413C239.38 337.009 235.821 333.533 231.245 332.205C223.833 330.054 216.113 326.847 208.25 322.204C200.75 317.828 194.25 311.326 189.875 303.824C164 259.813 178.75 220.179 199.5 199.424C207.545 191.484 218.534 184.282 231.601 180.106C235.99 178.704 239.354 175.226 241.095 170.959ZM448 64.016C342 64.016 256 150.037 256 256.063C256 362.089 342 448.109 448 448.109C554 448.109 640 362.089 640 256.063C640 150.037 554 64.016 448 64.016ZM448 416.102C359.75 416.102 288 344.334 288 256.063S359.75 96.023 448 96.023S608 167.791 608 256.063S536.25 416.102 448 416.102Z"/></svg>
